**kern
*MM76
*k[b-e-a-d-]
*M2/2
=1
1r
=2
1r
=3
1r
=4
2cc
2dd
=5
2ee-
2f#T
=6
4g
4f
4e-
4d
=7
2e-
2eT
=8
4f
2cc
[4b-
=9
4b-]
4a-
4g
4f
=10
4e
4g
4f
[4b-
=11
4b-]
8a-
8g
4f
4a-
=12
2g
2b
=13
4cc
4b
[2cc
=14
4cc]
4b
4cc
4dd
=15
4ee-
4dd
4cc
4g
=16
2cc
2b-
=17
2a-
2b-
=18
2cc
2dd
=19
2.ff
4e
=20
4f
8g
8a
4b-
4a-
=21
4g
4e
4f
4e
=22
2f
[2f
=23
2f]
4e-
4d
=24
2e-
[2g
=25
2.g]
4a
=26
1g
=27
2g
4B
4f
=28
4g
8f#
8g
2a
=29
[2g
8g]
8g
8a
8b
=30
[2cc
8cc]
8dd-
8cc
8b-
=31
4a-
8b-
8cc
4dd-
[4cc
=32
4cc]
8b
8cc
2f
=33
2g
4r
4e
=34
8f
8g
8a-
8g
8f
8e-
8d-
8c
=35
2d-
4e-
[4b-
=36
4b-]
8a-
8g
4a-
4a-
=37
1b-
=38
1a-
=39
2g
2a
=40
4g
4c
4a-
4g
=41
2g
2e
=42
2f
2g
=43
2a-
2B
=44
4c
4B-
4A-
4G
=45
8A-
8B-
8c
8F
8G
8F
8A
8F
=46
4B-
4f
4e-
4d-
=47
4c
2a-
4g
=48
8a-
8g
8f
8e-
8d
8c
8B-
8A-
=49
4G
4B-
4A-
4G
=50
2A-
4r
4c
=51
4f
2e-
4d
=52
2e-
4r
4g-
=53
4cc
2b-
4a
=54
2b-
4r
4dd-
=55
4gg
2ff
4ee
=56
2.ff
8ee-
8dd
=57
[2cc
8cc]
8dd
8b
8cc
=58
8b
8cc
8a
8b
4cc
4dd
=59
8ee-
8dd
8ee-
8cc
8r
4ff
8ee-
=60
8dd
8cc
8dd
8b-
8r
4gg
[8ff
=61
8ff]
4ee-
4ee-
4dd
[8dd
=62
8dd]
4cc
4cc
4b-
[8b-
=63
8b-]
4a-
4a-
4g
[8g
=64
4g]
2f
4e
=65
2f
4a-
4d
=66
2c
8r
4f
8e
=67
2e
[2a-
=68
4a-]
8g
8f
2g
=69
2f
4r
4a-
=70
2g
4r
4g-
=71
2f
4r
4b-
=72
2a-
4a-
4g
=73
2a-
2b-
=74
2cc
2d
=75
4e-
4d-
4c
4B-
=76
4c
4e-
4cc
4dd
=77
2.ee-
4b-
=78
4cc
4dd-
4ee-
8dd-
8cc
=79
4.b-
8ff
4ee-
4dd-
=80
2.cc
4ee-
=81
2dd
2ee
=82
[2ff
2ff]
=83
4ee
8ff
8gg
2cc
=84
2cc
2dd
=85
2ee-
2f#
=86
4g
4f
4e-
4f
=87
2e-
4r
4cc
=88
2cc
2b
=89
2g
2r
=90
8r
8B-
8A
8B-
8r
8c
8B-
8c
=91
8B
8B
8c
8d
8e-
8d
8e-
8f
=92
8g
8e-
8d
8e-
8f
8d
4e-
=93
2d
4r
4d
=94
2e-
4r
4f
=95
2g
4r
4g
=96
2a-
4r
[4b-
=97
4b-]
4a-
4r
[4a-
=98
4a-]
4g
4r
[4b-
=99
4b-]
4a-
4r
[4b-
=100
4b-]
4a-
4r
[4g
=101
4g]
2f
4e
=102
2f
4f
4g
=103
2g
2a
=104
4b
4g
8a
8g
8a
8b
=105
[2cc
8cc]
8b-
8a-
8g
=106
4f
8g
8a
4b-
4a-
=107
2.g-
4g
=108
2.f
4dd
=109
4cc
4b-
4a-
4g
=110
2f
2r
=111
1r
=112
1r
=113
1r
=114
1r
=115
1r
=116
1r
=117
1r
=118
1r
=119
1r
=120
1r
=121
1r
=122
1r
=123
2cc
2dd
=124
2ee-
2f#
=125
4g
4f
4e-
4d
=126
2c
4r
4b-
=127
8a-
8b-
8a-
8g
8a-
8f
4cc
=128
2b-
4r
4g
=129
2g
4r
4cc
=130
2cc
4r
4cc
=131
2cc
4r
4b-
=132
2cc
4r
4cc
=133
2cc
4r
4cc
=134
2cc
2r
=135
1r
=136
2r
4r
4dd
=137
2cc
2cc 2b-
=138
1a- 1cc
==
*-
